X:160
U: ~ = !turn!
%%topmargin 3cm
T:Paddy Ryan's Dream
B:Traditional Irish Fiddle Tunes. Randy Miller and Jack Perron.
S:Sean McGuire
Z:Transcribed by Ralph Palmer
R:Reel
M:C|
L:1/8
K:Am
AE (3.E.E.E cABG | EGDC B,CDB, | (3.A,.A,.A, A,B, CDEG | (3.c.c.A BG ABcB |
AE (3.E.E.E cABG | EGDC B,CDB, | (3.A,.A,.A, A,B, CDEG | (3.c.c.A BG A2 cB ||
Aaa^g aecA | Ggg^f gdBG | Aaa^g aefd | edcB ((3cBA) BG |
Aaa^g aecA | Ggg^f gdBG | AcBd cedf | edcB ABcB |]
